app/assets/v2/images/avatar/Accessories/HatShort-backwardscap.svg

<svg id="Layer_1" xmlns="http://www.w3.org/2000/svg" viewBox="0 0 899.2 1415.7"><style>.st1{fill:#12cad8;stroke:#333;stroke-width:28.232;stroke-miterlimit:10}.st2{fill:#333}.st3{fill:gray;stroke:#333;stroke-width:28.232;stroke-miterlimit:10}</style><path fill="none" d="M27 208.2h845.2v483H27z"/><path class="st1" d="M709.1 310.4l-38.9-33.7c-25.6-22.1-57.1-34.1-89.6-34.1h-262c-32.5 0-64 12-89.6 34.1l-38.9 33.7c-26.7 23.1-42.3 58.5-42.3 95.9v125.4l199.9-53.2c.3-.1.6-.2.9-.2-.3.1-.5.1-.8.2V456c0-18.7 5.3-36.4 14.3-48l13.1-16.8c8.6-11.1 19.3-17.1 30.2-17.1h88.4c11 0 21.6 6 30.2 17.1l13.1 16.8c9 11.6 14.3 29.2 14.3 48v21.6l-3.2-.8 203.2 49.4V406.3c.1-37.4-15.5-72.8-42.3-95.9z"/><path class="st1" d="M624.8 310.4l-26.3-33.7c-17.3-22.1-38.5-34.1-60.5-34.1H361.2c-21.9 0-43.2 12-60.5 34.1l-26.3 33.7c-18 23.1-28.6 58.5-28.6 95.9v99.3l101.7-27.1c.1 0 .2-.1.4-.1-.1 0-.2 0-.2.1V456c0-18.7 5.3-36.4 14.3-48l13.1-16.8c8.6-11.1 19.3-17.1 30.2-17.1h88.4c11 0 21.6 6 30.2 17.1L537 408c9 11.6 14.3 29.2 14.3 48v21.6l-3.2-.8 105.1 25.5v-96c.1-37.4-10.4-72.8-28.4-95.9z"/><path class="st2" d="M450.6 208.2c-26.2 0-47.5 9.7-47.5 36H498c0-26.2-21.2-36-47.4-36z"/><path class="st3" d="M390.2 470.2c-.2 0-.4 0-.6.1.2-.1.4-.1.6-.1zM384.4 471s-.1 0 0 0c-.1 0 0 0 0 0zM395.8 469.5c-.3 0-.6.1-.9.1.3 0 .6-.1.9-.1zM379.3 471.8h-.2.2zM524.3 471.9c-3.2-.5-6.4-1-9.7-1.5 3.2.5 6.4 1 9.7 1.5zM373.9 472.7s-.1 0 0 0c-.1 0 0 0 0 0zM420 467.7c-1.3 0-2.6.1-3.9.2 1.3-.1 2.6-.1 3.9-.2zM413.7 468c-1 .1-2 .1-3 .2 1-.1 2-.1 3-.2zM368.7 473.7h-.2.2zM401.5 468.9c-.5 0-.9.1-1.4.1.5 0 1 0 1.4-.1zM407.4 468.4c-.7 0-1.3.1-2 .1.7 0 1.4 0 2-.1zM463.9 467.5c-14.2 0-28.4-.3-42.5.2 29.2-1 59.4-1.3 88.4 2.2-15.3-1.9-30.6-2.4-45.9-2.4zM363.6 474.7c-.1 0-.2 0-.3.1.1 0 .2-.1.3-.1zM353.4 477.1c-.2 0-.3.1-.5.1.2 0 .3-.1.5-.1zM358.5 475.9c-.1 0-.3.1-.4.1.1-.1.3-.1.4-.1zM352.9 477.2c-1.5.4-2.9.7-4.4 1.1 1.5-.4 3-.7 4.4-1.1zM405.5 468.6c-1.3.1-2.6.2-3.9.4 1.2-.2 2.5-.3 3.9-.4zM410.8 468.2c-1.1.1-2.2.2-3.3.2 1-.1 2.1-.1 3.3-.2zM373.8 472.7c-1.7.3-3.4.6-5.1 1 1.7-.4 3.4-.7 5.1-1zM421.4 467.7c-.5 0-.9 0-1.4.1.5-.1.9-.1 1.4-.1zM416.1 467.9c-.8 0-1.6.1-2.4.1.8 0 1.6-.1 2.4-.1zM400.2 469.1c-1.5.1-2.9.3-4.4.5 1.4-.2 2.9-.4 4.4-.5zM384.3 471c-1.7.2-3.4.5-5.1.8 1.7-.3 3.4-.6 5.1-.8zM363.3 474.8c-1.6.3-3.2.7-4.8 1.1 1.6-.4 3.2-.8 4.8-1.1zM368.6 473.7c-1.6.3-3.3.7-4.9 1 1.6-.3 3.2-.7 4.9-1zM379.1 471.8c-1.7.3-3.4.6-5.2.9 1.7-.3 3.4-.6 5.2-.9zM389.6 470.3c-1.7.2-3.5.5-5.2.7 1.7-.3 3.5-.5 5.2-.7zM358.1 476c-1.6.4-3.2.7-4.7 1.1 1.6-.4 3.1-.8 4.7-1.1zM394.9 469.6c-1.6.2-3.1.4-4.7.6 1.6-.2 3.1-.4 4.7-.6z"/><path d="M551.5 477.6c0-26.1.1-50.8-16.7-72.6-7.6-9.9-15.1-21.5-26.6-27.3-7.4-3.7-14.8-3.6-22.7-3.6h-66.8c-6 0-12.3-.5-18.2.4-14.7 2.5-23.4 14.1-31.9 25-10.4 13.3-17.8 26.5-20 43.6-1.5 11.6-.8 23.6-.8 35.3 29.3-7.8 59.2-11 89.6-11 38.5.1 76.2.9 114.1 10.2z" fill="none" stroke="#333" stroke-width="28.232" stroke-miterlimit="10"/><path class="st2" d="M549.1 438.1s-93.5-34.5-198.4 1.2v34.4h200.7l-2.3-35.6z"/></svg>

<?xml version="1.0" encoding="utf-8"?>
<!-- Generator: Adobe Illustrator 22.1.0, SVG Export Plug-In . SVG Version: 6.00 Build 0)  -->
<svg version="1.1" id="Layer_1" xmlns="http://www.w3.org/2000/svg" xmlns:xlink="http://www.w3.org/1999/xlink" x="0px" y="0px"
	 viewBox="0 0 899.2 1415.7" style="enable-background:new 0 0 899.2 1415.7;" xml:space="preserve">
<style type="text/css">
	.st0{fill:none;}
	.st1{fill:#12CAD8;stroke:#333333;stroke-width:28.232;stroke-miterlimit:10;}
	.st2{fill:#333333;}
	.st3{fill:#808080;stroke:#333333;stroke-width:28.232;stroke-miterlimit:10;}
	.st4{fill:none;stroke:#333333;stroke-width:28.232;stroke-miterlimit:10;}
</style>
<g>
	<g>
	</g>
</g>
<g>
	<rect x="27" y="208.2" class="st0" width="845.2" height="483"/>
	<g>
		<path class="st1" d="M709.1,310.4l-38.9-33.7c-25.6-22.1-57.1-34.1-89.6-34.1H318.6c-32.5,0-64,12-89.6,34.1l-38.9,33.7
			c-26.7,23.1-42.3,58.5-42.3,95.9v125.4l199.9-53.2c0.3-0.1,0.6-0.2,0.9-0.2c-0.3,0.1-0.5,0.1-0.8,0.2V456c0-18.7,5.3-36.4,14.3-48
			l13.1-16.8c8.6-11.1,19.3-17.1,30.2-17.1h88.4c11,0,21.6,6,30.2,17.1l13.1,16.8c9,11.6,14.3,29.2,14.3,48v21.6l-3.2-0.8
			l203.2,49.4V406.3C751.5,368.9,735.9,333.5,709.1,310.4z"/>
		<path class="st1" d="M624.8,310.4l-26.3-33.7c-17.3-22.1-38.5-34.1-60.5-34.1H361.2c-21.9,0-43.2,12-60.5,34.1l-26.3,33.7
			c-18,23.1-28.6,58.5-28.6,95.9v99.3l101.7-27.1c0.1,0,0.2-0.1,0.4-0.1c-0.1,0-0.2,0-0.2,0.1V456c0-18.7,5.3-36.4,14.3-48
			l13.1-16.8c8.6-11.1,19.3-17.1,30.2-17.1h88.4c11,0,21.6,6,30.2,17.1l13.1,16.8c9,11.6,14.3,29.2,14.3,48v21.6l-3.2-0.8
			l105.1,25.5v-96C653.3,368.9,642.8,333.5,624.8,310.4z"/>
		<path class="st2" d="M450.6,208.2c-26.2,0-47.5,9.7-47.5,36H498C498,218,476.8,208.2,450.6,208.2z"/>
		<g>
			<path class="st3" d="M390.2,470.2c-0.2,0-0.4,0-0.6,0.1C389.8,470.2,390,470.2,390.2,470.2z"/>
			<path class="st3" d="M384.4,471C384.4,471,384.3,471,384.4,471C384.3,471,384.4,471,384.4,471z"/>
			<path class="st3" d="M395.8,469.5c-0.3,0-0.6,0.1-0.9,0.1C395.2,469.6,395.5,469.5,395.8,469.5z"/>
			<path class="st3" d="M379.3,471.8c-0.1,0-0.1,0-0.2,0C379.1,471.8,379.2,471.8,379.3,471.8z"/>
			<path class="st3" d="M524.3,471.9c-3.2-0.5-6.4-1-9.7-1.5C517.8,470.9,521,471.4,524.3,471.9z"/>
			<path class="st3" d="M373.9,472.7C373.9,472.7,373.8,472.7,373.9,472.7C373.8,472.7,373.9,472.7,373.9,472.7z"/>
			<path class="st3" d="M420,467.7c-1.3,0-2.6,0.1-3.9,0.2C417.4,467.8,418.7,467.8,420,467.7z"/>
			<path class="st3" d="M413.7,468c-1,0.1-2,0.1-3,0.2C411.7,468.1,412.7,468.1,413.7,468z"/>
			<path class="st3" d="M368.7,473.7c-0.1,0-0.1,0-0.2,0C368.6,473.7,368.7,473.7,368.7,473.7z"/>
			<path class="st3" d="M401.5,468.9c-0.5,0-0.9,0.1-1.4,0.1C400.6,469,401.1,469,401.5,468.9z"/>
			<path class="st3" d="M407.4,468.4c-0.7,0-1.3,0.1-2,0.1C406.1,468.5,406.8,468.5,407.4,468.4z"/>
			<path class="st3" d="M463.9,467.5c-14.2,0-28.4-0.3-42.5,0.2c29.2-1,59.4-1.3,88.4,2.2C494.5,468,479.2,467.5,463.9,467.5z"/>
			<path class="st3" d="M363.6,474.7c-0.1,0-0.2,0-0.3,0.1C363.4,474.8,363.5,474.7,363.6,474.7z"/>
			<path class="st3" d="M353.4,477.1c-0.2,0-0.3,0.1-0.5,0.1C353.1,477.2,353.2,477.1,353.4,477.1z"/>
			<path class="st3" d="M358.5,475.9c-0.1,0-0.3,0.1-0.4,0.1C358.2,475.9,358.4,475.9,358.5,475.9z"/>
			<path class="st3" d="M352.9,477.2c-1.5,0.4-2.9,0.7-4.4,1.1C350,477.9,351.5,477.6,352.9,477.2z"/>
			<path class="st3" d="M405.5,468.6c-1.3,0.1-2.6,0.2-3.9,0.4C402.8,468.8,404.1,468.7,405.5,468.6z"/>
			<path class="st3" d="M410.8,468.2c-1.1,0.1-2.2,0.2-3.3,0.2C408.5,468.3,409.6,468.3,410.8,468.2z"/>
			<path class="st3" d="M373.8,472.7c-1.7,0.3-3.4,0.6-5.1,1C370.4,473.3,372.1,473,373.8,472.7z"/>
			<path class="st3" d="M421.4,467.7c-0.5,0-0.9,0-1.4,0.1C420.5,467.7,420.9,467.7,421.4,467.7z"/>
			<path class="st3" d="M416.1,467.9c-0.8,0-1.6,0.1-2.4,0.1C414.5,468,415.3,467.9,416.1,467.9z"/>
			<path class="st3" d="M400.2,469.1c-1.5,0.1-2.9,0.3-4.4,0.5C397.2,469.4,398.7,469.2,400.2,469.1z"/>
			<path class="st3" d="M384.3,471c-1.7,0.2-3.4,0.5-5.1,0.8C380.9,471.5,382.6,471.2,384.3,471z"/>
			<path class="st3" d="M363.3,474.8c-1.6,0.3-3.2,0.7-4.8,1.1C360.1,475.5,361.7,475.1,363.3,474.8z"/>
			<path class="st3" d="M368.6,473.7c-1.6,0.3-3.3,0.7-4.9,1C365.3,474.4,366.9,474,368.6,473.7z"/>
			<path class="st3" d="M379.1,471.8c-1.7,0.3-3.4,0.6-5.2,0.9C375.6,472.4,377.3,472.1,379.1,471.8z"/>
			<path class="st3" d="M389.6,470.3c-1.7,0.2-3.5,0.5-5.2,0.7C386.1,470.7,387.9,470.5,389.6,470.3z"/>
			<path class="st3" d="M358.1,476c-1.6,0.4-3.2,0.7-4.7,1.1C355,476.7,356.5,476.3,358.1,476z"/>
			<path class="st3" d="M394.9,469.6c-1.6,0.2-3.1,0.4-4.7,0.6C391.8,470,393.3,469.8,394.9,469.6z"/>
			<path class="st4" d="M551.5,477.6c0-26.1,0.1-50.8-16.7-72.6c-7.6-9.9-15.1-21.5-26.6-27.3c-7.4-3.7-14.8-3.6-22.7-3.6
				c-22.3,0-44.5,0-66.8,0c-6,0-12.3-0.5-18.2,0.4c-14.7,2.5-23.4,14.1-31.9,25c-10.4,13.3-17.8,26.5-20,43.6
				c-1.5,11.6-0.8,23.6-0.8,35.3c29.3-7.8,59.2-11,89.6-11C475.9,467.5,513.6,468.3,551.5,477.6z"/>
		</g>
		<path class="st2" d="M549.1,438.1c0,0-93.5-34.5-198.4,1.2v34.4h200.7L549.1,438.1z"/>
	</g>
</g>
</svg>
